!!!SOCIAL_FUNCTION:	war songs
!!!PDT:	1922
!!!OTL: No_78_Scalp_Dance_Song_(a).krn
!!!REG: Southwest
!!!LANG: Non-Tone
!!!LING_GROUP: Uto-Aztecan
**kern
*staff1
=1-
*clefF4
*k[b-e-a-d-g-c-]
*M3/4
8.e-\L
16B-\Jk
8B-\L
8B-\J
8B-\L
16.e-\L
32B-\JJk
=2
8A-\L
8G-\J
4E-\
16.G-\LL
32E-\JK
8G-\J
=3
8B-\L
8B-\J
8A-\L
8A-\J
8A-\L
8G-\J
=4||
*M2/4
16B-\LL
16A-\
16B-\
16A-\JJ
4G-\
=5
8E-\L
8E-\J
4E-;\
=6||
*M3/4
8.G-\L
16E-\Jk
8E-\L
8E-\J
8E-\L
16.G-\L
32E-\JJk
=7||
*M2/4
8E-\L
8E-\J
16G-\LL
16E-\J
8G-\J
=8
8E-\L
8E-\J
4E-\
=9
4E-\
4E-\
==
*-
